!! 00000] TT[WS
!!!OTL: Mai bianshi
!!!ARE: Asia, China, Shanxi Zuoquan
!! Ethnic Group: Han
!! WII, 228
!!!SCT: J0739
!!!YEM: Copyright 1995, estate of Helmut Schaffrath.
**kern
*ICvox
*Ivox
*M4/4
*k[b-e-]
*B-:
{4ccc
4fff
8ccc
8ddd
8ccc
8bb-
=1
4ccc
4fff
8ccc
8ddd
8ccc
8bb-
=2
2ff
4fff
8ccc
8ddd
=3
8.ccc
16bb-
8gg
8ff
2gg}
=4
{8ff
4ff
8gg
4fff
8eee-
8ddd
=5
8ccc
8ccc
8ff
8gg
2ccc
=6
8gg
8ff
8dd
8ff
4gg
8bb-
8gg
=7
8ff
8dd
8cc
8b-
2cc}
=8
{8ccc
8bb-
8ccc
8fff
8ccc
8ddd
8ccc
8bb-
=9
8gg
8ff
8dd
8ff
4gg
8bb-
8gg
=10
8ff
8dd
8cc
8b-
2cc}
==
!!!AGN: Xiaodiao, Maibianshi. XÅshi, Xinminge
!!!ONB: ESAC (Essen Associative Code) Database: CHINA
!!!AMT: simple quadruple
!!!AIN: vox
!!!EED: Helmut Schaffrath
!!!EEV: 1.0
*-
